X:47
T:Trunkles
M:4/4
O:England; Oxfordshire; Bampton.
B:Lionel Bacon, A Handbook of Morris Dances
Z:transcribed by Tom Keays for Thornden Morris.
R:Hornpipe
P:A(AB3)4
K:G
P:A
d3 B c2 e2 | d>cB>A B2 G2 | d3 B c2 e2 | d>cB>A G4 :|
P:B
B2 B>c d2 g2 | e2 g2 d2 g2 | f2 e>d ^c2 A2 | d6 g>f | e2 c2 c2 e2 |
d2 B2 B2 e>d | c2 A2 A2 d>c | B2 G2 G2 A>B | c>BA>G F2 A2 | G8 |]

